X: 2344
T: ALDRIDGE'S HORNPIPE
%R: hornpipe, reel
B: James Kerr "Merry Melodies" v.2 p.38 #344
Z: 2016 John Chambers <jc:trillian.mit.edu>
M: C
L: 1/8
K: A
uE2 |:\
A2A2 Acec | defg aecA |\
[1,3 BEcE dEcE | BdcB AGFE :|\
[2,4 gbge faf^d | e2e'2e2 ::\
(ucd) |\
ecec eaga |
fedc dcBA |\
GABc defg | afe^d e2E2 |\
AcAc BdBd | cAce aecA |\
GEGB dBAG | A2a2A2 :|
